static/img/kroki/4f9a480d2808e442619040034c2a7927.svg

<?xml version="1.0" encoding="us-ascii" standalone="no"?><svg xmlns="http://www.w3.org/2000/svg" xmlns:xlink="http://www.w3.org/1999/xlink" contentStyleType="text/css" height="732px" preserveAspectRatio="none" style="width:256px;height:732px;" version="1.1" viewBox="0 0 256 732" width="256px" zoomAndPan="magnify"><defs/><g><!--class kubernetes_cluster_role--><g id="elem_kubernetes_cluster_role"><rect codeLine="22" fill="#3D176E" height="39.7891" id="kubernetes_cluster_role" rx="2.5" ry="2.5" style="stroke:#000D19;stroke-width:0.5;" width="242" x="7" y="686.44"/><ellipse cx="22" cy="706.3345" fill="#ADD1B2" rx="11" ry="11" style="stroke:#181818;stroke-width:1.0;"/><path d="M24.9688,711.9752 Q24.3906,712.272 23.75,712.4127 Q23.1094,712.5689 22.4063,712.5689 Q19.9063,712.5689 18.5781,710.9283 Q17.2656,709.272 17.2656,706.147 Q17.2656,703.022 18.5781,701.3658 Q19.9063,699.7095 22.4063,699.7095 Q23.1094,699.7095 23.75,699.8658 Q24.4063,700.022 24.9688,700.3189 L24.9688,703.0377 Q24.3438,702.4595 23.75,702.1939 Q23.1563,701.9127 22.5313,701.9127 Q21.1875,701.9127 20.5,702.9908 Q19.8125,704.0533 19.8125,706.147 Q19.8125,708.2408 20.5,709.3189 Q21.1875,710.3814 22.5313,710.3814 Q23.1563,710.3814 23.75,710.1158 Q24.3438,709.8345 24.9688,709.2564 L24.9688,711.9752 Z " fill="#000000"/><text fill="#D9B8FF" font-family="Helvetica" font-size="17" lengthAdjust="spacing" textLength="200" x="41" y="712.2198">kubernetes_cluster_role</text></g><!--class kubernetes_resource--><g id="elem_kubernetes_resource"><rect codeLine="24" fill="#3D176E" height="126.6797" id="kubernetes_resource" rx="2.5" ry="2.5" style="stroke:#000D19;stroke-width:0.5;" width="239" x="8.5" y="438.76"/><ellipse cx="33.85" cy="458.6545" fill="#ADD1B2" rx="11" ry="11" style="stroke:#181818;stroke-width:1.0;"/><path d="M36.8188,464.2952 Q36.2406,464.592 35.6,464.7327 Q34.9594,464.8889 34.2563,464.8889 Q31.7563,464.8889 30.4281,463.2483 Q29.1156,461.592 29.1156,458.467 Q29.1156,455.342 30.4281,453.6858 Q31.7563,452.0295 34.2563,452.0295 Q34.9594,452.0295 35.6,452.1858 Q36.2563,452.342 36.8188,452.6389 L36.8188,455.3577 Q36.1938,454.7795 35.6,454.5139 Q35.0063,454.2327 34.3813,454.2327 Q33.0375,454.2327 32.35,455.3108 Q31.6625,456.3733 31.6625,458.467 Q31.6625,460.5608 32.35,461.6389 Q33.0375,462.7014 34.3813,462.7014 Q35.0063,462.7014 35.6,462.4358 Q36.1938,462.1545 36.8188,461.5764 L36.8188,464.2952 Z " fill="#000000"/><text fill="#D9B8FF" font-family="Helvetica" font-size="17" lengthAdjust="spacing" textLength="174" x="55.15" y="464.5398">kubernetes_resource</text><line style="stroke:#000D19;stroke-width:0.5;" x1="9.5" x2="246.5" y1="478.5491" y2="478.5491"/><text fill="#D9B8FF" font-family="sans-serif" font-size="14" font-weight="bold" lengthAdjust="spacing" textLength="46" x="19.5" y="500.5442">labels</text><text fill="#D9B8FF" font-family="sans-serif" font-size="14" lengthAdjust="spacing" textLength="171" x="65.5" y="500.5442">: dictionary[string, string]</text><text fill="#D9B8FF" font-family="sans-serif" font-size="14" font-weight="bold" lengthAdjust="spacing" textLength="90" x="19.5" y="526.8411">namespace</text><text fill="#D9B8FF" font-family="sans-serif" font-size="14" lengthAdjust="spacing" textLength="48" x="109.5" y="526.8411">: string</text><text fill="#D9B8FF" font-family="sans-serif" font-size="14" font-weight="bold" lengthAdjust="spacing" textLength="138" x="19.5" y="553.1379">resource_version</text><text fill="#D9B8FF" font-family="sans-serif" font-size="14" lengthAdjust="spacing" textLength="48" x="157.5" y="553.1379">: string</text></g><!--class resource--><g id="elem_resource"><rect codeLine="29" fill="#3D176E" height="310.7578" id="resource" rx="2.5" ry="2.5" style="stroke:#000D19;stroke-width:0.5;" width="227" x="14.5" y="7"/><ellipse cx="83.25" cy="26.8945" fill="#ADD1B2" rx="11" ry="11" style="stroke:#181818;stroke-width:1.0;"/><path d="M86.2188,32.5352 Q85.6406,32.832 85,32.9727 Q84.3594,33.1289 83.6563,33.1289 Q81.1563,33.1289 79.8281,31.4883 Q78.5156,29.832 78.5156,26.707 Q78.5156,23.582 79.8281,21.9258 Q81.1563,20.2695 83.6563,20.2695 Q84.3594,20.2695 85,20.4258 Q85.6563,20.582 86.2188,20.8789 L86.2188,23.5977 Q85.5938,23.0195 85,22.7539 Q84.4063,22.4727 83.7813,22.4727 Q82.4375,22.4727 81.75,23.5508 Q81.0625,24.6133 81.0625,26.707 Q81.0625,28.8008 81.75,29.8789 Q82.4375,30.9414 83.7813,30.9414 Q84.4063,30.9414 85,30.6758 Q85.5938,30.3945 86.2188,29.8164 L86.2188,32.5352 Z " fill="#000000"/><text fill="#D9B8FF" font-family="Helvetica" font-size="17" lengthAdjust="spacing" textLength="71" x="108.75" y="32.7798">resource</text><line style="stroke:#000D19;stroke-width:0.5;" x1="15.5" x2="240.5" y1="46.7891" y2="46.7891"/><text fill="#D9B8FF" font-family="sans-serif" font-size="14" font-weight="bold" lengthAdjust="spacing" textLength="29" x="25.5" y="68.7842">age</text><text fill="#D9B8FF" font-family="sans-serif" font-size="14" lengthAdjust="spacing" textLength="66" x="54.5" y="68.7842">: duration</text><text fill="#D9B8FF" font-family="sans-serif" font-size="14" font-weight="bold" lengthAdjust="spacing" textLength="43" x="25.5" y="95.0811">atime</text><text fill="#D9B8FF" font-family="sans-serif" font-size="14" lengthAdjust="spacing" textLength="70" x="68.5" y="95.0811">: datetime</text><text fill="#D9B8FF" font-family="sans-serif" font-size="14" font-weight="bold" lengthAdjust="spacing" textLength="43" x="25.5" y="121.3779">ctime</text><text fill="#D9B8FF" font-family="sans-serif" font-size="14" lengthAdjust="spacing" textLength="70" x="68.5" y="121.3779">: datetime</text><text fill="#D9B8FF" font-family="sans-serif" font-size="14" font-weight="bold" lengthAdjust="spacing" textLength="14" x="25.5" y="147.6748">id</text><text fill="#D9B8FF" font-family="sans-serif" font-size="14" lengthAdjust="spacing" textLength="48" x="39.5" y="147.6748">: string</text><text fill="#D9B8FF" font-family="sans-serif" font-size="14" font-weight="bold" lengthAdjust="spacing" textLength="33" x="25.5" y="173.9717">kind</text><text fill="#D9B8FF" font-family="sans-serif" font-size="14" lengthAdjust="spacing" textLength="48" x="58.5" y="173.9717">: string</text><text fill="#D9B8FF" font-family="sans-serif" font-size="14" font-weight="bold" lengthAdjust="spacing" textLength="90" x="25.5" y="200.2686">last_access</text><text fill="#D9B8FF" font-family="sans-serif" font-size="14" lengthAdjust="spacing" textLength="66" x="115.5" y="200.2686">: duration</text><text fill="#D9B8FF" font-family="sans-serif" font-size="14" font-weight="bold" lengthAdjust="spacing" textLength="90" x="25.5" y="226.5654">last_update</text><text fill="#D9B8FF" font-family="sans-serif" font-size="14" lengthAdjust="spacing" textLength="66" x="115.5" y="226.5654">: duration</text><text fill="#D9B8FF" font-family="sans-serif" font-size="14" font-weight="bold" lengthAdjust="spacing" textLength="48" x="25.5" y="252.8623">mtime</text><text fill="#D9B8FF" font-family="sans-serif" font-size="14" lengthAdjust="spacing" textLength="70" x="73.5" y="252.8623">: datetime</text><text fill="#D9B8FF" font-family="sans-serif" font-size="14" font-weight="bold" lengthAdjust="spacing" textLength="43" x="25.5" y="279.1592">name</text><text fill="#D9B8FF" font-family="sans-serif" font-size="14" lengthAdjust="spacing" textLength="48" x="68.5" y="279.1592">: string</text><text fill="#D9B8FF" font-family="sans-serif" font-size="14" font-weight="bold" lengthAdjust="spacing" textLength="34" x="25.5" y="305.4561">tags</text><text fill="#D9B8FF" font-family="sans-serif" font-size="14" lengthAdjust="spacing" textLength="171" x="59.5" y="305.4561">: dictionary[string, string]</text></g><!--reverse link kubernetes_resource to kubernetes_cluster_role--><g id="link_kubernetes_resource_kubernetes_cluster_role"><path codeLine="41" d="M128,586.56 C128,623.36 128,663.39 128,686.31 " fill="none" id="kubernetes_resource-backto-kubernetes_cluster_role" style="stroke:#FFAF37;stroke-width:2.0;"/><polygon fill="none" points="121,586.7,128,566.7,135,586.7,121,586.7" style="stroke:#FFAF37;stroke-width:2.0;"/></g><!--reverse link resource to kubernetes_resource--><g id="link_resource_kubernetes_resource"><path codeLine="42" d="M128,338.9 C128,374.57 128,409.83 128,438.32 " fill="none" id="resource-backto-kubernetes_resource" style="stroke:#FFAF37;stroke-width:2.0;"/><polygon fill="none" points="121,338.91,128,318.91,135,338.91,121,338.91" style="stroke:#FFAF37;stroke-width:2.0;"/></g><!--SRC=[XPDDJy9048Rl_8fDl159GAA0yO8aHY_4Y3TZoB0xBHlQNJ8xXQ3otzsbrlI3ZrERztrstfdfTgaL2apNl1CffWiart8hRTP0a8enaTrER699N4KHHFr1tNooXYy2KqXHF6EoGTOIwiJxKikLGUV4JSbw1BcAoMP6vUMPm3XleU4IDKd0kJ4pwKN6M6f6ZHR3AAgJzQ9NVTKRt643iwIG_f1kjwjwepfoCUhitF_4J7-Xw9MNDhMCZJOR4GVgR9U1A3NP6BJmJ_Ru2aff4ulRalQMzqG6gQBFbg3iDj0H9AuSunW9BU_ME6bCXQEXYWP7uPTJi0oR4wlCNrI3Z6ukaomScvDDK7otzas2qDcCP73RxGGMcBXs-rueBLbR0xJxSFx-cFXQvCzFZnc_5N_R90OobxrQL9fl_6_YpvRC8hSI1l7XlCe8GbHGMAUv1epXtMloYAPL9TXlg2huB9w3bFwlgIKSd6mTQjMSz4XEcBDIc26-j9rzwzXo7tuwdSwf3zCwZHNEBm00]--></g></svg>

<svg xmlns="http://www.w3.org/2000/svg" width="256" height="732" preserveAspectRatio="none" style="width:256px;height:732px"><rect width="242" height="39.789" x="7" y="686.44" fill="#3D176E" rx="2.5" ry="2.5" style="stroke:#000d19;stroke-width:.5"/><circle cx="22" cy="706.335" r="11" fill="#ADD1B2" style="stroke:#181818;stroke-width:1"/><path d="M24.969 711.975q-.578.297-1.219.438-.64.156-1.344.156-2.5 0-3.828-1.64-1.312-1.657-1.312-4.782t1.312-4.781q1.328-1.656 3.828-1.656.703 0 1.344.156.656.156 1.219.453v2.719q-.625-.578-1.219-.844-.594-.281-1.219-.281-1.343 0-2.031 1.078-.688 1.062-.688 3.156 0 2.094.688 3.172.688 1.062 2.031 1.062.625 0 1.219-.265.594-.281 1.219-.86v2.72Z"/><text x="41" y="712.22" fill="#D9B8FF" font-family="Helvetica" font-size="17" textLength="200">kubernetes_cluster_role</text><rect width="239" height="126.68" x="8.5" y="438.76" fill="#3D176E" rx="2.5" ry="2.5" style="stroke:#000d19;stroke-width:.5"/><circle cx="33.85" cy="458.654" r="11" fill="#ADD1B2" style="stroke:#181818;stroke-width:1"/><path d="M36.819 464.295q-.578.297-1.219.438-.64.156-1.344.156-2.5 0-3.828-1.64-1.312-1.657-1.312-4.782t1.312-4.781q1.328-1.656 3.828-1.656.703 0 1.344.156.656.156 1.219.453v2.719q-.625-.579-1.219-.844-.594-.281-1.219-.281-1.343 0-2.031 1.078-.688 1.062-.688 3.156 0 2.094.688 3.172.688 1.062 2.031 1.062.625 0 1.219-.265.594-.281 1.219-.86v2.72Z"/><text x="55.15" y="464.54" fill="#D9B8FF" font-family="Helvetica" font-size="17" textLength="174">kubernetes_resource</text><path d="M9.5 478.549h237" style="stroke:#000d19;stroke-width:.5"/><text x="19.5" y="500.544" fill="#D9B8FF" font-family="sans-serif" font-size="14" font-weight="bold" textLength="46">labels</text><text x="65.5" y="500.544" fill="#D9B8FF" font-family="sans-serif" font-size="14" textLength="171">: dictionary[string, string]</text><text x="19.5" y="526.841" fill="#D9B8FF" font-family="sans-serif" font-size="14" font-weight="bold" textLength="90">namespace</text><text x="109.5" y="526.841" fill="#D9B8FF" font-family="sans-serif" font-size="14" textLength="48">: string</text><text x="19.5" y="553.138" fill="#D9B8FF" font-family="sans-serif" font-size="14" font-weight="bold" textLength="138">resource_version</text><text x="157.5" y="553.138" fill="#D9B8FF" font-family="sans-serif" font-size="14" textLength="48">: string</text><rect width="227" height="310.758" x="14.5" y="7" fill="#3D176E" rx="2.5" ry="2.5" style="stroke:#000d19;stroke-width:.5"/><circle cx="83.25" cy="26.895" r="11" fill="#ADD1B2" style="stroke:#181818;stroke-width:1"/><path d="M86.219 32.535q-.578.297-1.219.438-.64.156-1.344.156-2.5 0-3.828-1.64-1.312-1.657-1.312-4.782t1.312-4.781q1.328-1.656 3.828-1.656.703 0 1.344.156.656.156 1.219.453v2.719q-.625-.578-1.219-.844-.594-.281-1.219-.281-1.344 0-2.031 1.078-.688 1.062-.688 3.156 0 2.094.688 3.172.688 1.062 2.031 1.062.625 0 1.219-.265.594-.281 1.219-.86v2.72Z"/><text x="108.75" y="32.78" fill="#D9B8FF" font-family="Helvetica" font-size="17" textLength="71">resource</text><path d="M15.5 46.789h225" style="stroke:#000d19;stroke-width:.5"/><text x="25.5" y="68.784" fill="#D9B8FF" font-family="sans-serif" font-size="14" font-weight="bold" textLength="29">age</text><text x="54.5" y="68.784" fill="#D9B8FF" font-family="sans-serif" font-size="14" textLength="66">: duration</text><text x="25.5" y="95.081" fill="#D9B8FF" font-family="sans-serif" font-size="14" font-weight="bold" textLength="43">atime</text><text x="68.5" y="95.081" fill="#D9B8FF" font-family="sans-serif" font-size="14" textLength="70">: datetime</text><text x="25.5" y="121.378" fill="#D9B8FF" font-family="sans-serif" font-size="14" font-weight="bold" textLength="43">ctime</text><text x="68.5" y="121.378" fill="#D9B8FF" font-family="sans-serif" font-size="14" textLength="70">: datetime</text><text x="25.5" y="147.675" fill="#D9B8FF" font-family="sans-serif" font-size="14" font-weight="bold" textLength="14">id</text><text x="39.5" y="147.675" fill="#D9B8FF" font-family="sans-serif" font-size="14" textLength="48">: string</text><text x="25.5" y="173.972" fill="#D9B8FF" font-family="sans-serif" font-size="14" font-weight="bold" textLength="33">kind</text><text x="58.5" y="173.972" fill="#D9B8FF" font-family="sans-serif" font-size="14" textLength="48">: string</text><text x="25.5" y="200.269" fill="#D9B8FF" font-family="sans-serif" font-size="14" font-weight="bold" textLength="90">last_access</text><text x="115.5" y="200.269" fill="#D9B8FF" font-family="sans-serif" font-size="14" textLength="66">: duration</text><text x="25.5" y="226.565" fill="#D9B8FF" font-family="sans-serif" font-size="14" font-weight="bold" textLength="90">last_update</text><text x="115.5" y="226.565" fill="#D9B8FF" font-family="sans-serif" font-size="14" textLength="66">: duration</text><text x="25.5" y="252.862" fill="#D9B8FF" font-family="sans-serif" font-size="14" font-weight="bold" textLength="48">mtime</text><text x="73.5" y="252.862" fill="#D9B8FF" font-family="sans-serif" font-size="14" textLength="70">: datetime</text><text x="25.5" y="279.159" fill="#D9B8FF" font-family="sans-serif" font-size="14" font-weight="bold" textLength="43">name</text><text x="68.5" y="279.159" fill="#D9B8FF" font-family="sans-serif" font-size="14" textLength="48">: string</text><text x="25.5" y="305.456" fill="#D9B8FF" font-family="sans-serif" font-size="14" font-weight="bold" textLength="34">tags</text><text x="59.5" y="305.456" fill="#D9B8FF" font-family="sans-serif" font-size="14" textLength="171">: dictionary[string, string]</text><path fill="none" d="M128 586.56v99.75m-7-99.61 7-20 7 20h-14zm7-247.8v99.42m-7-99.41 7-20 7 20h-14z" style="stroke:#ffaf37;stroke-width:2"/></svg>
